build/img/sprite/maximize_button.svg

<svg width="15" height="14" viewBox="0 0 15 14" fill="none" xmlns="http://www.w3.org/2000/svg">
<path d="M4.76651 0.73291V2.80883C4.76651 3.17588 4.6207 3.52789 4.36116 3.78743C4.10162 4.04697 3.74961 4.19278 3.38256 4.19278H1.30664M13.7622 4.19278H11.6863C11.3192 4.19278 10.9672 4.04697 10.7077 3.78743C10.4481 3.52789 10.3023 3.17588 10.3023 2.80883V0.73291M10.3023 13.1884V11.1125C10.3023 10.7455 10.4481 10.3935 10.7077 10.1339C10.9672 9.87438 11.3192 9.72857 11.6863 9.72857H13.7622M1.30664 9.72857H3.38256C3.74961 9.72857 4.10162 9.87438 4.36116 10.1339C4.6207 10.3935 4.76651 10.7455 4.76651 11.1125V13.1884" stroke="#4C4C4C" stroke-width="1.30726" stroke-linecap="round"/>
</svg>

<svg width="15" height="14" viewBox="0 0 15 14" fill="none" xmlns="http://www.w3.org/2000/svg"><path d="M4.767.733v2.076a1.384 1.384 0 01-1.384 1.384H1.307m12.455 0h-2.076a1.384 1.384 0 01-1.384-1.384V.733m0 12.455v-2.075a1.384 1.384 0 011.384-1.384h2.076m-12.455 0h2.076a1.384 1.384 0 011.384 1.384v2.075" stroke="#4C4C4C" stroke-width="1.307" stroke-linecap="round"/></svg>
